src/home/img/tagging.svg

<svg height="80" viewBox="0 0 84 80" width="84" xmlns="http://www.w3.org/2000/svg" xmlns:xlink="http://www.w3.org/1999/xlink"><linearGradient id="a" x1="50%" x2="50%" y1="0%" y2="100%"><stop offset="0" stop-color="#3f6abc"/><stop offset="1" stop-color="#1851be"/></linearGradient><filter id="b" height="110.6%" width="110.6%" x="-5.3%" y="-5.3%"><feGaussianBlur in="SourceGraphic" stdDeviation="1.05"/></filter><radialGradient id="c" cx="57.407%" cy="0%" gradientTransform="matrix(0 1 -.79688 0 .574 -.574)" r="133.013%"><stop offset="0" stop-color="#fff"/><stop offset="1" stop-color="#aec3eb"/></radialGradient><mask id="d" fill="#fff"><path d="m.5 13.84c0-7.367 5.973-13.34 13.34-13.34h48.32c7.367 0 13.34 5.973 13.34 13.34v48.32c0 7.367-5.973 13.34-13.34 13.34h-48.32c-7.367 0-13.34-5.973-13.34-13.34z" fill="#fff" fill-rule="evenodd"/></mask><g fill="none" fill-rule="evenodd" transform="translate(2 2)"><path d="m.5 13.84c0-7.367 5.973-13.34 13.34-13.34h48.32c7.367 0 13.34 5.973 13.34 13.34v48.32c0 7.367-5.973 13.34-13.34 13.34h-48.32c-7.367 0-13.34-5.973-13.34-13.34z" mask="url(#d)"/><path d="m.5 13.84c0-7.367 5.973-13.34 13.34-13.34h48.32c7.367 0 13.34 5.973 13.34 13.34v48.32c0 7.367-5.973 13.34-13.34 13.34h-48.32c-7.367 0-13.34-5.973-13.34-13.34z"/><path d="m.5 13.84c0-7.367 5.973-13.34 13.34-13.34h48.32c7.367 0 13.34 5.973 13.34 13.34v48.32c0 7.367-5.973 13.34-13.34 13.34h-48.32c-7.367 0-13.34-5.973-13.34-13.34z"/><g fill-rule="nonzero"><path d="m.5 13.84c0-7.367 5.973-13.34 13.34-13.34h48.32c7.367 0 13.34 5.973 13.34 13.34v48.32c0 7.367-5.973 13.34-13.34 13.34h-48.32c-7.367 0-13.34-5.973-13.34-13.34z" fill="url(#a)" filter="url(#b)" stroke="#fff" stroke-opacity=".01" stroke-width="1.68"/><path d="m.5 13.84c0-7.367 5.973-13.34 13.34-13.34h48.32c7.367 0 13.34 5.973 13.34 13.34v48.32c0 7.367-5.973 13.34-13.34 13.34h-48.32c-7.367 0-13.34-5.973-13.34-13.34z" fill="url(#a)" stroke="#fff" stroke-opacity=".01" stroke-width="1.68"/><path d="m49.599616 22.5058363-21.1054439-21.10542844c-.8966536-.89665961-2.112779-1.40040786-3.3808434-1.40040786h-20.33207637c-2.64064582 0-4.78125233 2.14060495-4.78125233 4.78124883v20.33206147c0 1.2680635.50374862 2.484188 1.40040889 3.3808409l21.10544391 21.1054285c1.867079 1.8671773 4.8944086 1.8672769 6.7616869 0l20.3320763-20.3320615c1.8671787-1.8671772 1.8671787-4.8945046 0-6.7616819zm-38.599616-6.5058363c-2.76145833 0-5-2.2385417-5-5 0-2.76145833 2.23854167-5 5-5 2.7614583 0 5 2.23854167 5 5 0 2.7614583-2.2385417 5-5 5zm51.6333158 13.2675397-19.8427914 20.3320763c-1.8222456 1.8671787-4.7767235 1.8671787-6.5989691 0l-.0349964-.0358594 16.9206852-17.3379166c1.6525128-1.6932606 2.5625177-3.9445332 2.5625177-6.3391438 0-2.3946105-.9101021-4.6458831-2.5625177-6.3391437l-19.0772441-19.5475525h4.7362831c1.2375489 0 2.4244086.50374862 3.2994846 1.40040889l20.5975481 21.10544391c1.8222456 1.8671786 1.8222456 4.8945082 0 6.7616869z" fill="url(#c)" transform="translate(18 16)"/></g></g></svg>

<svg xmlns="http://www.w3.org/2000/svg" xmlns:xlink="http://www.w3.org/1999/xlink" width="84" height="80" viewBox="0 0 84 80">
  <defs>
    <path id="tagging-a" d="M0.5,13.84 C0.5,6.473 6.473,0.5 13.84,0.5 L62.16,0.5 C69.527,0.5 75.5,6.473 75.5,13.84 L75.5,62.16 C75.5,69.527 69.527,75.5 62.16,75.5 L13.84,75.5 C6.473,75.5 0.5,69.527 0.5,62.16 L0.5,13.84 Z"/>
    <linearGradient id="tagging-c" x1="50%" x2="50%" y1="0%" y2="100%">
      <stop offset="0%" stop-color="#3F6ABC"/>
      <stop offset="100%" stop-color="#1851BE"/>
    </linearGradient>
    <filter id="tagging-d" width="110.6%" height="110.6%" x="-5.3%" y="-5.3%" filterUnits="objectBoundingBox">
      <feGaussianBlur in="SourceGraphic" stdDeviation="1.05"/>
    </filter>
    <radialGradient id="tagging-e" cx="57.407%" cy="0%" r="133.013%" fx="57.407%" fy="0%" gradientTransform="matrix(0 1 -.79688 0 .574 -.574)">
      <stop offset="0%" stop-color="#FFF"/>
      <stop offset="100%" stop-color="#AEC3EB"/>
    </radialGradient>
  </defs>
  <g fill="none" fill-rule="evenodd" transform="translate(2 2)">
    <mask id="tagging-b" fill="#fff">
      <use xlink:href="#tagging-a"/>
    </mask>
    <path d="M0.5,13.84 C0.5,6.473 6.473,0.5 13.84,0.5 L62.16,0.5 C69.527,0.5 75.5,6.473 75.5,13.84 L75.5,62.16 C75.5,69.527 69.527,75.5 62.16,75.5 L13.84,75.5 C6.473,75.5 0.5,69.527 0.5,62.16 L0.5,13.84 Z" mask="url(#tagging-b)"/>
    <path d="M0.5,13.84 C0.5,6.473 6.473,0.5 13.84,0.5 L62.16,0.5 C69.527,0.5 75.5,6.473 75.5,13.84 L75.5,62.16 C75.5,69.527 69.527,75.5 62.16,75.5 L13.84,75.5 C6.473,75.5 0.5,69.527 0.5,62.16 L0.5,13.84 Z"/>
    <path d="M0.5,13.84 C0.5,6.473 6.473,0.5 13.84,0.5 L62.16,0.5 C69.527,0.5 75.5,6.473 75.5,13.84 L75.5,62.16 C75.5,69.527 69.527,75.5 62.16,75.5 L13.84,75.5 C6.473,75.5 0.5,69.527 0.5,62.16 L0.5,13.84 Z"/>
    <path fill="url(#tagging-c)" fill-rule="nonzero" stroke="#FFF" stroke-opacity=".01" stroke-width="1.68" d="M0.5,13.84 C0.5,6.473 6.473,0.5 13.84,0.5 L62.16,0.5 C69.527,0.5 75.5,6.473 75.5,13.84 L75.5,62.16 C75.5,69.527 69.527,75.5 62.16,75.5 L13.84,75.5 C6.473,75.5 0.5,69.527 0.5,62.16 L0.5,13.84 Z" filter="url(#tagging-d)"/>
    <path fill="url(#tagging-c)" fill-rule="nonzero" stroke="#FFF" stroke-opacity=".01" stroke-width="1.68" d="M0.5,13.84 C0.5,6.473 6.473,0.5 13.84,0.5 L62.16,0.5 C69.527,0.5 75.5,6.473 75.5,13.84 L75.5,62.16 C75.5,69.527 69.527,75.5 62.16,75.5 L13.84,75.5 C6.473,75.5 0.5,69.527 0.5,62.16 L0.5,13.84 Z"/>
    <path fill="url(#tagging-e)" fill-rule="nonzero" d="M49.599616,22.5058363 L28.4941721,1.40040786 C27.5975185,0.50374825 26.3813931,0 25.1133287,0 L4.78125233,0 C2.14060651,0 0,2.14060495 0,4.78124883 L0,25.1133103 C0,26.3813738 0.503748619,27.5974983 1.40040889,28.4941512 L22.5058528,49.5995797 C24.3729318,51.466757 27.4002614,51.4668566 29.2675397,49.5995797 L49.599616,29.2675182 C51.4667947,27.400341 51.4667947,24.3730136 49.599616,22.5058363 Z M11,16 C8.23854167,16 6,13.7614583 6,11 C6,8.23854167 8.23854167,6 11,6 C13.7614583,6 16,8.23854167 16,11 C16,13.7614583 13.7614583,16 11,16 Z M62.6333158,29.2675397 L42.7905244,49.599616 C40.9682788,51.4667947 38.0138009,51.4667947 36.1915553,49.599616 L36.1565589,49.5637566 L53.0772441,32.22584 C54.7297569,30.5325794 55.6397618,28.2813068 55.6397618,25.8866962 C55.6397618,23.4920857 54.7296597,21.2408131 53.0772441,19.5475525 L34,0 L38.7362831,0 C39.973832,0 41.1606917,0.503748619 42.0357677,1.40040889 L62.6333158,22.5058528 C64.4555614,24.3730314 64.4555614,27.400361 62.6333158,29.2675397 L62.6333158,29.2675397 Z" transform="translate(18 16)"/>
  </g>
</svg>
